X: 194
T: Pour ce que le suis
N: Derived from Rue3017-Pour_ce_que_le_suis.krn
C: Pierre de la Rue
%%abc-version 2.0
%%abcx-abcm2ps-target-version 5.9.1 (29 Sep 2008)
%%abc-creator hum2abc beta
%%abcx-conversion-date 2019/02/17 08:01:17
%%abc-edited-by Jesse Rodin
%%abc-edited-by Chris Gage 06-17-2013
%%abcx-initial-encoding-date 2013/08/06/
%%humdrum-veritas 1169169847
%%humdrum-veritas-data 659756092
%%linebreak <none>
%%barnumbers 0
L: 1/4
M: 2/1
Q: 1/2=120
%%staves [1 2 3 4]
V: 1 clef=treble
V: 2 clef=treble-8
V: 3 clef=treble-8
V: 4 clef=bass
K: F
[V:1] z2G2A2G2 | 
[V:2] z8 | 
[V:3] G4c4 | 
[V:4] z8 | 
[V:1] AGc4B2 | 
[V:2] z8 | 
[V:3] c4d4 | 
[V:4] z8 | 
[V:1] c2A2BAGF | 
[V:2] z8 | 
[V:3] c4z2c2- | 
[V:4] z8 | 
[V:1] GFEDE4 | 
[V:2] z8 | 
[V:3] c2c4BA | 
[V:4] z8 | 
[V:1] z2D2E2D2 | 
[V:2] z8 | 
[V:3] BAGFG2d2 | 
[V:4] z8 | 
[V:1] EDG4^F2 | 
[V:2] z4z2d2 | 
[V:3] cBAGA4 | 
[V:4] z4D,4 | 
[V:1] G8 | 
[V:2] e2d2edg2- | 
[V:3] G4z4 | 
[V:4] G,4G,4 | 
[V:1] z8 | 
[V:2] g2f2g2e2 | 
[V:3] z8 | 
[V:4] A,4G,4 | 
[V:1] z8 | 
[V:2] fedcdcBA | 
[V:3] z8 | 
[V:4] z2G,4G,2- | 
[V:1] z8 | 
[V:2] B2ABcde2- | 
[V:3] z8 | 
[V:4] G,2A,4G,F, | 
[V:1] z8 | 
[V:2] e2d4c2 | 
[V:3] z4z2G2- | 
[V:4] G,F,E,D,E,4 | 
[V:1] z8 | 
[V:2] d2B4AG | 
[V:3] G2F2G2B2- | 
[V:4] D,4G,,4 | 
[V:1] z2G4F2 | 
[V:2] d3cB3A | 
[V:3] B2AGd4- | 
[V:4] z8 | 
[V:1] G2B4AG | 
[V:2] G8 | 
[V:3] d4z4 | 
[V:4] z4z2G,,2- | 
[V:1] d8 | 
[V:2] z4d3e | 
[V:3] z4d4 | 
[V:4] G,,2F,,2G,,2B,,2- | 
[V:1] z4d4 | 
[V:2] f2g4^f2 | 
[V:3] d2d2d4- | 
[V:4] B,,2A,,G,,D,4 | 
[V:1] d2d2d4- | 
[V:2] g8 | 
[V:3] d4d2cB | 
[V:4] G,,4G,,2G,,2 | 
[V:1] d4d2cB | 
[V:2] f4f2f2 | 
[V:3] A8- | 
[V:4] D,4D,4 | 
[V:1] A8 | 
[V:2] e3d/e/f2d2- | 
[V:3] A8 | 
[V:4] C,4D,4 | 
[V:1] z4d4 | 
[V:2] dcBAG3F | 
[V:3] B8 | 
[V:4] B,,8 | 
[V:1] c2A4GF | 
[V:2] A8 | 
[V:3] c8 | 
[V:4] A,,8 | 
[V:1] E2A3FB2- | 
[V:2] z8 | 
[V:3] c4d4 | 
[V:4] z2F,3D,G,2- | 
[V:1] B2A4G2 | 
[V:2] z8 | 
[V:3] c4B4 | 
[V:4] G,E,F,2G,4 | 
[V:1] A8 | 
[V:2] z2d4cB | 
[V:3] A8 | 
[V:4] D,4F,4- | 
[V:1] z8 | 
[V:2] A2d3B_e2- | 
[V:3] z8 | 
[V:4] F,4G,4 | 
[V:1] z8 | 
[V:2] e2d4c2 | 
[V:3] z8 | 
[V:4] F,4E,4 | 
[V:1] z8 | 
[V:2] d2B4AG | 
[V:3] z8 | 
[V:4] D,4z2D,2 | 
[V:1] z8 | 
[V:2] A3DD4 | 
[V:3] z4z2A2 | 
[V:4] F,4F,4 | 
[V:1] z4z2A2 | 
[V:2] z2f2f4 | 
[V:3] c4c4 | 
[V:4] F,8 | 
[V:1] c4c4 | 
[V:2] f4f4 | 
[V:3] c4c4 | 
[V:4] F,4F,4- | 
[V:1] c6BA | 
[V:2] f4e3d | 
[V:3] c4c4 | 
[V:4] F,2E,D,C,3D, | 
[V:1] G2A4G2 | 
[V:2] cBA2F2G2 | 
[V:3] c8- | 
[V:4] E,2F,4E,2 | 
[V:1] A2F3GA2 | 
[V:2] F2A3Bc2 | 
[V:3] c8 | 
[V:4] F,8 | 
[V:1] D2B2c2d2 | 
[V:2] B2G3AB2 | 
[V:3] d4z4 | 
[V:4] z4z2B,,2 | 
[V:1] G2B4A2- | 
[V:2] g3fedd2- | 
[V:3] z2B2c2d2 | 
[V:4] C,2D,2E,2F,2 | 
[V:1] A2G4^F2 | 
[V:2] d2c2d4 | 
[V:3] G4A4 | 
[V:4] G,2E,2D,4 | 
[V:1] G4z2B2- | 
[V:2] z2B4AG | 
[V:3] G8 | 
[V:4] G,,8 | 
[V:1] B2AGd4 | 
[V:2] d8 | 
[V:3] F2G4B2 | 
[V:4] z4G,,4 | 
[V:1] z8 | 
[V:2] z4d3e | 
[V:3] A2G2d4 | 
[V:4] F,,2G,,4B,,2- | 
[V:1] z4d4 | 
[V:2] f2g4^f2 | 
[V:3] d4d2d2 | 
[V:4] B,,2A,,G,,D,4 | 
[V:1] d2d2d2cB | 
[V:2] g8 | 
[V:3] d4d4 | 
[V:4] G,,8 | 
[V:1] A2B2G4 | 
[V:2] z2G2B4 | 
[V:3] z8 | 
[V:4] z4G,4 | 
[V:1] F4z4 | 
[V:2] A2d4e2- | 
[V:3] z2B2A2B2 | 
[V:4] D,3E,F,2G,2- | 
[V:1] z8 | 
[V:2] efg2c2f2- | 
[V:3] G4F4 | 
[V:4] G,2B,2A,2F,2 | 
[V:1] z8 | 
[V:2] f2e2f4 | 
[V:3] z2B2A2F2 | 
[V:4] G,4F,4 | 
[V:1] z2B2A2F2 | 
[V:2] z8 | 
[V:3] G2d2c2A2 | 
[V:4] B,,4z4 | 
[V:1] G2d2c2A2 | 
[V:2] z2f2f2f2 | 
[V:3] B4A4 | 
[V:4] z2B,,2F,2F,2 | 
[V:1] B4A4 | 
[V:2] d2e2f2d2 | 
[V:3] z8 | 
[V:4] G,2G,2D,2F,2 | 
[V:1] z8 | 
[V:2] e4f4 | 
[V:3] z2B2A2F2 | 
[V:4] G,4D,4 | 
[V:1] z2B2A2F2 | 
[V:2] z8 | 
[V:3] G2d2c2A2 | 
[V:4] z8 | 
[V:1] G2d2c2A2 | 
[V:2] z2f2f2f2 | 
[V:3] B4A4 | 
[V:4] z2B,,2F,2F,2 | 
[V:1] B4A4 | 
[V:2] d2e2f4 | 
[V:3] z4z2A2 | 
[V:4] G,2G,2D,2F,2 | 
[V:1] z4z2A2 | 
[V:2] z4z2f2 | 
[V:3] B4A4 | 
[V:4] G,4D,4 | 
[V:1] B4A4 | 
[V:2] g4d4 | 
[V:3] z4z2A2 | 
[V:4] z4z2F,2 | 
[V:1] z4z2A2 | 
[V:2] z4z2d2 | 
[V:3] B4A2A2 | 
[V:4] G,4D,2F,2 | 
[V:1] B2A2B2A2 | 
[V:2] g2f2e2f2 | 
[V:3] d2d2B2c2 | 
[V:4] G,2D,2G,2F,2 | 
[V:1] B2AG^F3E | 
[V:2] d2e2d4 | 
[V:3] B2c2A4 | 
[V:4] G,2C,2D,4 | 
[V:1] G8 |]  
[V:2] d8 |]  
[V:3] G8 |]  
[V:4] G,,8 |]  



